src/assets/images/blog/avanade-logo-color.svg

<svg fill="none" height="44" viewBox="0 0 117 44" width="117" xmlns="http://www.w3.org/2000/svg" xmlns:xlink="http://www.w3.org/1999/xlink"><linearGradient id="a" gradientUnits="userSpaceOnUse" x1="14.3547" x2="32.1664" y1="28.9476" y2="16.6563"><stop offset=".2" stop-color="#ff5800"/><stop offset=".2422" stop-color="#ff5800"/><stop offset=".3192" stop-color="#ffb414"/><stop offset=".3963" stop-color="#ffb414"/><stop offset=".4725" stop-color="#ffb414"/><stop offset=".5476" stop-color="#ffb414"/><stop offset=".62" stop-color="#ffb414"/><stop offset=".6597" stop-color="#ffb414"/><stop offset=".7244" stop-color="#ffb414"/><stop offset=".8061" stop-color="#ff5800"/><stop offset=".9" stop-color="#ff5800"/></linearGradient><linearGradient id="b" gradientUnits="userSpaceOnUse" x1="10.3746" x2="33.5957" y1="26.3957" y2="26.3957"><stop offset=".09" stop-color="#ff5800"/><stop offset=".1898" stop-color="#ff5800"/><stop offset=".3059" stop-color="#ffb414"/><stop offset=".4034" stop-color="#ffb414"/><stop offset=".47" stop-color="#ffb414"/><stop offset=".5314" stop-color="#ffb414"/><stop offset=".6235" stop-color="#ffb414"/><stop offset=".7342" stop-color="#ff5800"/><stop offset=".82" stop-color="#ff5800"/></linearGradient><linearGradient id="c" gradientUnits="userSpaceOnUse" x1="5.94847" x2="24.573" y1="27.3198" y2="40.0004"><stop offset=".5" stop-color="#ff5800"/><stop offset=".64" stop-color="#ce056a" stop-opacity=".99"/><stop offset=".7559" stop-color="#ce056a"/><stop offset=".8091" stop-color="#ce056a" stop-opacity=".9955"/><stop offset=".8494" stop-color="#ce056a" stop-opacity=".9968"/><stop offset=".8833" stop-color="#ce056a" stop-opacity=".9978"/><stop offset=".9131" stop-color="#ff5800" stop-opacity=".9988"/><stop offset=".9397" stop-color="#ff5800" stop-opacity=".9997"/><stop offset=".95" stop-color="#ff5800"/></linearGradient><linearGradient id="d" gradientUnits="userSpaceOnUse" x1="15.0882" x2="32.3785" y1="34.9422" y2="22.9589"><stop offset="0" stop-color="#ff5800"/><stop offset=".0624571" stop-color="#ff5800"/><stop offset=".1272" stop-color="#ff5800"/><stop offset=".1929" stop-color="#dc4600"/><stop offset=".259" stop-color="#c80000"/><stop offset=".3" stop-color="#c80000"/><stop offset=".48" stop-color="#c80000"/><stop offset=".91" stop-color="#ff5800"/></linearGradient><g clip-rule="evenodd" fill="#ff5800" fill-rule="evenodd"><path d="m45.4224 27.819c-.4093.1138-.8759.1701-1.3984.1701-1.3193 0-1.9785-.4765-1.9785-1.4296 0-.9982.7275-1.4977 2.183-1.4977.591 0 .9891.0342 1.1939.1023zm-1.8421-8.1691c-.5686 0-1.1204.051-1.6543.1531-.5347.1022-.9611.2442-1.2793.4255l.1705 1.5997c.4778-.136.904-.2323 1.2793-.2892.3751-.0563.7558-.0852 1.1427-.0852 1.4551 0 2.1831.5564 2.1831 1.6678v.3745c-.3411-.0681-.8188-.102-1.4325-.102-1.274 0-2.2802.284-3.0188.851-.7393.5674-1.1087 1.3503-1.1087 2.3483 0 2.0423 1.3987 3.0635 4.1956 3.0635 1.1368 0 2.3195-.1702 3.5474-.5107v-5.8544c0-2.4276-1.342-3.6419-4.025-3.6419z"/><path d="m48.5947 19.8882h2.4218l2.3538 7.3521 2.3876-7.3521h2.3196l-3.6158 9.5304h-2.2515z"/><path d="m64.1487 27.819c-.4093.1138-.8756.1701-1.3984.1701-1.319 0-1.9785-.4765-1.9785-1.4296 0-.9982.7275-1.4977 2.1832-1.4977.5909 0 .989.0342 1.1937.1023zm-1.8409-8.1691c-.5686 0-1.1203.051-1.6543.1531-.5344.1022-.961.2442-1.2793.4255l.1708 1.5997c.4775-.136.9037-.2323 1.279-.2892.3753-.0563.7559-.0852 1.1428-.0852 1.4551 0 2.183.5564 2.183 1.6678v.3745c-.341-.0681-.8186-.102-1.4324-.102-1.274 0-2.2803.284-3.019.851-.7392.5674-1.1086 1.3503-1.1086 2.3483 0 2.0423 1.3987 3.0635 4.1956 3.0635 1.1368 0 2.3198-.1702 3.5475-.5107v-5.8544c0-2.4276-1.3421-3.6419-4.0251-3.6419z"/><path d="m74.777 23.8028c0-.862-.1653-1.4579-.4947-1.787-.3299-.3285-.9156-.4934-1.7566-.4934-.2048 0-.4493.0227-.7335.0679-.2846.0459-.5515.1022-.8017.1701v7.6585h-2.2171v-9.0539c.568-.2265 1.2163-.4025 1.9443-.5276.7275-.1244 1.4327-.187 2.115-.187 2.7741 0 4.1613 1.248 4.1613 3.7439v6.0246h-2.217z"/><path d="m84.2928 27.819c-.4093.1138-.8757.1701-1.3985.1701-1.3192 0-1.9782-.4765-1.9782-1.4296 0-.9982.7273-1.4977 2.183-1.4977.5908 0 .9889.0342 1.1937.1023zm-1.8404-8.1691c-.5687 0-1.1204.051-1.6544.1531-.5344.1022-.961.2442-1.2792.4255l.1707 1.5997c.4776-.136.9038-.2323 1.2791-.2892.3752-.0563.7558-.0852 1.1427-.0852 1.4551 0 2.1831.5564 2.1831 1.6678v.3745c-.3411-.0681-.8187-.102-1.4325-.102-1.274 0-2.28.284-3.0188.851-.7394.5674-1.1087 1.3503-1.1087 2.3483 0 2.0423 1.3986 3.0635 4.1955 3.0635 1.1371 0 2.3198-.1702 3.5475-.5107v-5.8544c0-2.4276-1.342-3.6419-4.025-3.6419z"/><path d="m94.7312 27.6828c-.2506.0909-.7051.1362-1.3644.1362-1.8878 0-2.8311-1.0324-2.8311-3.0975 0-1.0435.2441-1.8492.7332-2.4166.4888-.567 1.177-.851 2.0637-.851.546 0 1.0117.0797 1.3986.2383zm.0009-11.4704v3.6419c-.4093-.136-.9439-.2041-1.6032-.2041-1.4557 0-2.6382.471-3.5477 1.4125-.9097.9417-1.3644 2.1731-1.3644 3.6931 0 1.5884.4437 2.8027 1.3304 3.6419.8869.8396 2.183 1.2592 3.8885 1.2592 1.0688 0 2.2399-.1701 3.5135-.5104v-12.9341z"/><path d="m101.008 23.6663c.069-.726.29-1.2934.665-1.7018.376-.4084.858-.6128 1.45-.6128.591 0 1.069.2044 1.433.6128.363.4084.545.9758.545 1.7018zm6.242.4765c0-1.3838-.364-2.479-1.091-3.2847-.728-.805-1.718-1.2082-2.968-1.2082-1.364 0-2.451.4542-3.2575 1.3615-.8075.9077-1.2108 2.1444-1.2108 3.71 0 1.5658.4317 2.7799 1.2963 3.6421.864.8626 2.092 1.2934 3.684 1.2934 1.045 0 2.035-.182 2.967-.5447l-.239-1.6678c-.796.2722-1.649.4084-2.558.4084-1.865 0-2.82-.8392-2.865-2.5187h6.242z"/></g><path d="m16.2811 15.8119c-.7539 1.4439-1.3402 2.6158-1.8218 3.4737-.4606.858-.9003 1.5695-1.2773 2.1136-.3978.5441-.7956.9835-1.2354 1.3184-.4397.3348-.9841.7115-1.6542 1.13l-.37687-.565c.41877-.3139.79567-.6278 1.13067-.9208.3351-.293.691-.7324 1.0889-1.2765.3978-.5441.8376-1.2556 1.3401-2.1763.5025-.8999 1.1307-2.1345 1.8845-3.6622.5444-1.1091 1.047-2.0298 1.5286-2.7413s.9423-1.2765 1.4029-1.6741c.4397-.4185.8795-.6906 1.2982-.858.4188-.16741.8376-.23019 1.2773-.20926.4188.02092.8167.12556 1.2355.31386.3978.1884.8585.565 1.3191 1.1091.4816.5441 1.026 1.3393 1.6123 2.3647s1.2983 2.3856 2.1149 4.0597c.5235 1.0882 1.026 1.988 1.4867 2.7205.4607.7324.9423 1.3183 1.4448 1.7996s1.026.858 1.6123 1.151c.5863.2929 1.2354.5441 1.9892.7742l.4607.7952c-.9004-.1046-1.717-.272-2.4289-.5231-.712-.2511-1.3611-.6487-1.9683-1.1719-.6073-.5231-1.1936-1.1928-1.7589-2.0089-.5654-.8161-1.1517-1.8625-1.7589-3.0971-.7538-1.5067-1.382-2.7204-1.9055-3.6621s-.9841-1.6741-1.382-2.1973c-.3978-.5232-.7747-.8789-1.0888-1.0672-.3141-.1884-.6491-.293-.9632-.293-.356-.0209-.691.0628-1.026.2092-.3351.1465-.6701.4186-1.047.8162-.356.3976-.7538.8998-1.1517 1.5485-.4606.6278-.9003 1.4439-1.3819 2.4066z" fill="url(#a)"/><path d="m27.3581 25.3331c1.1098.0419 2.1986-.0209 3.2665-.1674s2.0311-.3767 2.8478-.6696l.1047.5859c-1.4867.9417-3.5806 1.3812-6.2609 1.2765-1.2144-.0418-2.2614-.1883-3.1408-.4185-.8795-.2302-1.6542-.5232-2.3452-.858-.5026-.2302-1.0051-.4813-1.4658-.7324-.4606-.2511-.9422-.4813-1.4239-.7115-.4816-.2302-.9841-.3976-1.4866-.5441-.5026-.1465-1.047-.2302-1.6124-.2511-.8375-.0209-1.696.0418-2.5545.1883s-1.7171.3976-2.5546.7115l-.3769-.4394.691-.3348c.67-.3976 1.4238-.6906 2.3033-.8999.8585-.2092 1.717-.293 2.5336-.272.6491.0209 1.2564.1046 1.8008.2511s1.0679.3348 1.5495.565.9841.4604 1.4657.7324c.4816.2721 1.0051.5232 1.5286.7534.691.3139 1.4029.565 2.1777.7952.8166.272 1.8008.3976 2.9524.4394z" fill="url(#b)"/><path d="m28.9493 17.3601c-.3979-.0209-.7538.0837-1.1098.2721-.356.1883-.7538.565-1.2354 1.0882-.4607.5231-1.0051 1.2555-1.6333 2.1763-.6281.9208-1.382 2.1136-2.3033 3.5993-1.2354 2.009-2.3871 3.4529-3.455 4.3318s-2.1776 1.3184-3.3502 1.2765c-1.2354-.0419-2.408-.6696-3.4759-1.8415-1.0889-1.1928-1.9055-2.846-2.47087-4.9386l1.02597.2092c.5654 1.6741 1.2983 3.0134 2.1777 3.997.8795 1.0044 1.8008 1.5067 2.7849 1.5485.9004.0419 1.8218-.3557 2.764-1.1509.9213-.7952 1.9474-2.0927 3.0781-3.9133 1.0051-1.6113 1.8636-2.9297 2.5546-3.9341.691-1.0045 1.2982-1.7997 1.8007-2.3438.5235-.565 1.0051-.9417 1.4449-1.13.4397-.1883.9213-.272 1.4448-.2511 1.1726.0418 2.2195.7324 3.1199 2.0926s1.717 3.4319 2.429 6.2151l-1.1308-.4603c-.691-2.3019-1.4029-4.0179-2.1358-5.1061-.7328-1.1509-1.5076-1.7159-2.3242-1.7369z" fill="url(#c)"/><path d="m24.9714 33.0762c.5444.0209 1.0888-.1674 1.6123-.5441.5444-.3767 1.2145-1.1091 2.0311-2.1973.6282-.8161 1.1517-1.5067 1.5705-2.0508.4188-.544.7957-1.0253 1.1516-1.4229.356-.4186.7329-.8162 1.1098-1.1928.3769-.3767.8585-.8371 1.4239-1.3812l.6491.3558c-.5235.5859-.9632 1.0881-1.2982 1.5067-.356.4185-.691.837-1.047 1.2765-.335.4394-.7119.9207-1.1307 1.4648s-.9423 1.2347-1.5705 2.0717c-.8585 1.1719-1.6332 1.988-2.3242 2.4903-.6701.4813-1.4239.7115-2.2196.6905-.4397-.0209-.8375-.0837-1.1726-.2302-.3559-.1255-.7538-.3766-1.2354-.7533-.4606-.3767-1.0051-.8998-1.6332-1.5904-.6282-.6906-1.4239-1.5695-2.3871-2.6786-.7329-.837-1.382-1.5276-1.9683-2.0926s-1.1726-1.0254-1.7589-1.3602c-.5863-.3558-1.1935-.6278-1.8426-.8162-.6492-.1883-1.403-.3348-2.2615-.4394l.2513-.7743c.8794.0837 1.6751.1883 2.3661.3348s1.3401.3976 1.9683.7534c.6072.3557 1.2354.8161 1.8636 1.3811.6282.586 1.3401 1.3184 2.1149 2.2182.9632 1.1091 1.7379 1.9671 2.3452 2.6367.6072.6487 1.1097 1.151 1.5076 1.5067.3978.3558.7329.586 1.026.6906.2722.0837.5654.1465.8585.1465z" fill="url(#d)"/></svg>

<svg width="117" height="44" viewBox="0 0 117 44" fill="none" xmlns="http://www.w3.org/2000/svg">
<path fill-rule="evenodd" clip-rule="evenodd" d="M45.4224 27.819C45.0131 27.9328 44.5465 27.9891 44.024 27.9891C42.7047 27.9891 42.0455 27.5126 42.0455 26.5595C42.0455 25.5613 42.773 25.0618 44.2285 25.0618C44.8195 25.0618 45.2176 25.096 45.4224 25.1641V27.819ZM43.5803 19.6499C43.0117 19.6499 42.4599 19.7009 41.926 19.803C41.3913 19.9052 40.9649 20.0472 40.6467 20.2285L40.8172 21.8282C41.295 21.6922 41.7212 21.5959 42.0965 21.539C42.4716 21.4827 42.8523 21.4538 43.2392 21.4538C44.6943 21.4538 45.4223 22.0102 45.4223 23.1216V23.4961C45.0812 23.428 44.6035 23.3941 43.9898 23.3941C42.7158 23.3941 41.7096 23.6781 40.971 24.2451C40.2317 24.8125 39.8623 25.5954 39.8623 26.5934C39.8623 28.6357 41.261 29.6569 44.0579 29.6569C45.1947 29.6569 46.3774 29.4867 47.6053 29.1462V23.2918C47.6053 20.8642 46.2633 19.6499 43.5803 19.6499Z" fill="#FF5800"/>
<path fill-rule="evenodd" clip-rule="evenodd" d="M48.5947 19.8882H51.0165L53.3703 27.2403L55.7579 19.8882H58.0775L54.4617 29.4186H52.2102L48.5947 19.8882Z" fill="#FF5800"/>
<path fill-rule="evenodd" clip-rule="evenodd" d="M64.1487 27.819C63.7394 27.9328 63.2731 27.9891 62.7503 27.9891C61.4313 27.9891 60.7718 27.5126 60.7718 26.5595C60.7718 25.5613 61.4993 25.0618 62.955 25.0618C63.5459 25.0618 63.944 25.096 64.1487 25.1641V27.819ZM62.3078 19.6499C61.7392 19.6499 61.1875 19.7009 60.6535 19.803C60.1191 19.9052 59.6925 20.0472 59.3742 20.2285L59.545 21.8282C60.0225 21.6922 60.4487 21.5959 60.824 21.539C61.1993 21.4827 61.5799 21.4538 61.9668 21.4538C63.4219 21.4538 64.1498 22.0102 64.1498 23.1216V23.4961C63.8088 23.428 63.3312 23.3941 62.7174 23.3941C61.4434 23.3941 60.4371 23.6781 59.6984 24.2451C58.9592 24.8125 58.5898 25.5954 58.5898 26.5934C58.5898 28.6357 59.9885 29.6569 62.7854 29.6569C63.9222 29.6569 65.1052 29.4867 66.3329 29.1462V23.2918C66.3329 20.8642 64.9908 19.6499 62.3078 19.6499Z" fill="#FF5800"/>
<path fill-rule="evenodd" clip-rule="evenodd" d="M74.777 23.8028C74.777 22.9408 74.6117 22.3449 74.2823 22.0158C73.9524 21.6873 73.3667 21.5224 72.5257 21.5224C72.3209 21.5224 72.0764 21.5451 71.7922 21.5903C71.5076 21.6362 71.2407 21.6925 70.9905 21.7604V29.4189H68.7734V20.365C69.3414 20.1385 69.9897 19.9625 70.7177 19.8374C71.4452 19.713 72.1504 19.6504 72.8327 19.6504C75.6068 19.6504 76.994 20.8984 76.994 23.3943V29.4189H74.777V23.8028Z" fill="#FF5800"/>
<path fill-rule="evenodd" clip-rule="evenodd" d="M84.2928 27.819C83.8835 27.9328 83.4171 27.9891 82.8943 27.9891C81.5751 27.9891 80.9161 27.5126 80.9161 26.5595C80.9161 25.5613 81.6434 25.0618 83.0991 25.0618C83.6899 25.0618 84.088 25.096 84.2928 25.1641V27.819ZM82.4524 19.6499C81.8837 19.6499 81.332 19.7009 80.798 19.803C80.2636 19.9052 79.837 20.0472 79.5188 20.2285L79.6895 21.8282C80.1671 21.6922 80.5933 21.5959 80.9686 21.539C81.3438 21.4827 81.7244 21.4538 82.1113 21.4538C83.5664 21.4538 84.2944 22.0102 84.2944 23.1216V23.4961C83.9533 23.428 83.4757 23.3941 82.8619 23.3941C81.5879 23.3941 80.5819 23.6781 79.8431 24.2451C79.1037 24.8125 78.7344 25.5954 78.7344 26.5934C78.7344 28.6357 80.133 29.6569 82.9299 29.6569C84.067 29.6569 85.2497 29.4867 86.4774 29.1462V23.2918C86.4774 20.8642 85.1354 19.6499 82.4524 19.6499Z" fill="#FF5800"/>
<path fill-rule="evenodd" clip-rule="evenodd" d="M94.7312 27.6828C94.4806 27.7737 94.0261 27.819 93.3668 27.819C91.479 27.819 90.5357 26.7866 90.5357 24.7215C90.5357 23.678 90.7798 22.8723 91.2689 22.3049C91.7577 21.7379 92.4459 21.4539 93.3326 21.4539C93.8786 21.4539 94.3443 21.5336 94.7312 21.6922V27.6828ZM94.7321 16.2124V19.8543C94.3228 19.7183 93.7882 19.6502 93.1289 19.6502C91.6732 19.6502 90.4907 20.1212 89.5812 21.0627C88.6715 22.0044 88.2168 23.2358 88.2168 24.7558C88.2168 26.3442 88.6605 27.5585 89.5472 28.3977C90.4341 29.2373 91.7302 29.6569 93.4357 29.6569C94.5045 29.6569 95.6756 29.4868 96.9492 29.1465V16.2124H94.7321Z" fill="#FF5800"/>
<path fill-rule="evenodd" clip-rule="evenodd" d="M101.008 23.6663C101.077 22.9403 101.298 22.3729 101.673 21.9645C102.049 21.5561 102.531 21.3517 103.123 21.3517C103.714 21.3517 104.192 21.5561 104.556 21.9645C104.919 22.3729 105.101 22.9403 105.101 23.6663H101.008ZM107.25 24.1428C107.25 22.759 106.886 21.6638 106.159 20.8581C105.431 20.0531 104.441 19.6499 103.191 19.6499C101.827 19.6499 100.74 20.1041 99.9335 21.0114C99.126 21.9191 98.7227 23.1558 98.7227 24.7214C98.7227 26.2872 99.1544 27.5013 100.019 28.3635C100.883 29.2261 102.111 29.6569 103.703 29.6569C104.748 29.6569 105.738 29.4749 106.67 29.1122L106.431 27.4444C105.635 27.7166 104.782 27.8528 103.873 27.8528C102.008 27.8528 101.053 27.0136 101.008 25.3341H107.25V24.1428Z" fill="#FF5800"/>
<path d="M16.2811 15.8119C15.5272 17.2558 14.9409 18.4277 14.4593 19.2856C13.9987 20.1436 13.559 20.8551 13.182 21.3992C12.7842 21.9433 12.3864 22.3827 11.9466 22.7176C11.5069 23.0524 10.9625 23.4291 10.2924 23.8476L9.91553 23.2826C10.3343 22.9687 10.7112 22.6548 11.0462 22.3618C11.3813 22.0688 11.7372 21.6294 12.1351 21.0853C12.5329 20.5412 12.9727 19.8297 13.4752 18.909C13.9777 18.0091 14.6059 16.7745 15.3597 15.2468C15.9041 14.1377 16.4067 13.217 16.8883 12.5055C17.3699 11.794 17.8306 11.229 18.2912 10.8314C18.7309 10.4129 19.1707 10.1408 19.5894 9.9734C20.0082 9.80599 20.427 9.74321 20.8667 9.76414C21.2855 9.78506 21.6834 9.8897 22.1022 10.078C22.5 10.2664 22.9607 10.643 23.4213 11.1871C23.9029 11.7312 24.4473 12.5264 25.0336 13.5518C25.6199 14.5772 26.3319 15.9374 27.1485 17.6115C27.672 18.6997 28.1745 19.5995 28.6352 20.332C29.0959 21.0644 29.5775 21.6503 30.08 22.1316C30.5825 22.6129 31.106 22.9896 31.6923 23.2826C32.2786 23.5755 32.9277 23.8267 33.6815 24.0568L34.1422 24.852C33.2418 24.7474 32.4252 24.58 31.7133 24.3289C31.0013 24.0778 30.3522 23.6802 29.745 23.157C29.1377 22.6339 28.5514 21.9642 27.9861 21.1481C27.4207 20.332 26.8344 19.2856 26.2272 18.051C25.4734 16.5443 24.8452 15.3306 24.3217 14.3889C23.7982 13.4472 23.3376 12.7148 22.9397 12.1916C22.5419 11.6684 22.165 11.3127 21.8509 11.1244C21.5368 10.936 21.2018 10.8314 20.8877 10.8314C20.5317 10.8105 20.1967 10.8942 19.8617 11.0406C19.5266 11.1871 19.1916 11.4592 18.8147 11.8568C18.4587 12.2544 18.0609 12.7566 17.663 13.4053C17.2024 14.0331 16.7627 14.8492 16.2811 15.8119Z" fill="url(#paint0_linear_1_3501)"/>
<path d="M27.3581 25.3331C28.4679 25.375 29.5567 25.3122 30.6246 25.1657C31.6925 25.0192 32.6557 24.789 33.4724 24.4961L33.5771 25.082C32.0904 26.0237 29.9965 26.4632 27.3162 26.3585C26.1018 26.3167 25.0548 26.1702 24.1754 25.94C23.2959 25.7098 22.5212 25.4168 21.8302 25.082C21.3276 24.8518 20.8251 24.6007 20.3644 24.3496C19.9038 24.0985 19.4222 23.8683 18.9405 23.6381C18.4589 23.4079 17.9564 23.2405 17.4539 23.094C16.9513 22.9475 16.4069 22.8638 15.8415 22.8429C15.004 22.822 14.1455 22.8847 13.287 23.0312C12.4285 23.1777 11.5699 23.4288 10.7324 23.7427L10.3555 23.3033L11.0465 22.9685C11.7165 22.5709 12.4703 22.2779 13.3498 22.0686C14.2083 21.8594 15.0668 21.7756 15.8834 21.7966C16.5325 21.8175 17.1398 21.9012 17.6842 22.0477C18.2286 22.1942 18.7521 22.3825 19.2337 22.6127C19.7153 22.8429 20.2178 23.0731 20.6994 23.3451C21.181 23.6172 21.7045 23.8683 22.228 24.0985C22.919 24.4124 23.6309 24.6635 24.4057 24.8937C25.2223 25.1657 26.2065 25.2913 27.3581 25.3331Z" fill="url(#paint1_linear_1_3501)"/>
<path d="M28.9493 17.3601C28.5514 17.3392 28.1955 17.4438 27.8395 17.6322C27.4835 17.8205 27.0857 18.1972 26.6041 18.7204C26.1434 19.2435 25.599 19.9759 24.9708 20.8967C24.3427 21.8175 23.5888 23.0103 22.6675 24.496C21.4321 26.505 20.2804 27.9489 19.2125 28.8278C18.1446 29.7067 17.0349 30.1462 15.8623 30.1043C14.6269 30.0624 13.4543 29.4347 12.3864 28.2628C11.2975 27.07 10.4809 25.4168 9.91553 23.3242L10.9415 23.5334C11.5069 25.2075 12.2398 26.5468 13.1192 27.5304C13.9987 28.5348 14.92 29.0371 15.9041 29.0789C16.8045 29.1208 17.7259 28.7232 18.6681 27.928C19.5894 27.1328 20.6155 25.8353 21.7462 24.0147C22.7513 22.4034 23.6098 21.085 24.3008 20.0806C24.9918 19.0761 25.599 18.2809 26.1015 17.7368C26.625 17.1718 27.1066 16.7951 27.5464 16.6068C27.9861 16.4185 28.4677 16.3348 28.9912 16.3557C30.1638 16.3975 31.2107 17.0881 32.1111 18.4483C33.0115 19.8085 33.8281 21.8802 34.5401 24.6634L33.4093 24.2031C32.7183 21.9012 32.0064 20.1852 31.2735 19.097C30.5407 17.9461 29.7659 17.3811 28.9493 17.3601Z" fill="url(#paint2_linear_1_3501)"/>
<path d="M24.9714 33.0762C25.5158 33.0971 26.0602 32.9088 26.5837 32.5321C27.1281 32.1554 27.7982 31.423 28.6148 30.3348C29.243 29.5187 29.7665 28.8281 30.1853 28.284C30.6041 27.74 30.981 27.2587 31.3369 26.8611C31.6929 26.4425 32.0698 26.0449 32.4467 25.6683C32.8236 25.2916 33.3052 24.8312 33.8706 24.2871L34.5197 24.6429C33.9962 25.2288 33.5565 25.731 33.2215 26.1496C32.8655 26.5681 32.5305 26.9866 32.1745 27.4261C31.8395 27.8655 31.4626 28.3468 31.0438 28.8909C30.625 29.435 30.1015 30.1256 29.4733 30.9626C28.6148 32.1345 27.8401 32.9506 27.1491 33.4529C26.479 33.9342 25.7252 34.1644 24.9295 34.1434C24.4898 34.1225 24.092 34.0597 23.7569 33.9132C23.401 33.7877 23.0031 33.5366 22.5215 33.1599C22.0609 32.7832 21.5164 32.2601 20.8883 31.5695C20.2601 30.8789 19.4644 30 18.5012 28.8909C17.7683 28.0539 17.1192 27.3633 16.5329 26.7983C15.9466 26.2333 15.3603 25.7729 14.774 25.4381C14.1877 25.0823 13.5805 24.8103 12.9314 24.6219C12.2822 24.4336 11.5284 24.2871 10.6699 24.1825L10.9212 23.4082C11.8006 23.4919 12.5963 23.5965 13.2873 23.743C13.9783 23.8895 14.6274 24.1406 15.2556 24.4964C15.8628 24.8521 16.491 25.3125 17.1192 25.8775C17.7474 26.4635 18.4593 27.1959 19.2341 28.0957C20.1973 29.2048 20.972 30.0628 21.5793 30.7324C22.1865 31.3811 22.689 31.8834 23.0869 32.2391C23.4847 32.5949 23.8198 32.8251 24.1129 32.9297C24.3851 33.0134 24.6783 33.0762 24.9714 33.0762Z" fill="url(#paint3_linear_1_3501)"/>
<defs>
<linearGradient id="paint0_linear_1_3501" x1="14.3547" y1="28.9476" x2="32.1664" y2="16.6563" gradientUnits="userSpaceOnUse">
<stop offset="0.2" stop-color="#FF5800"/>
<stop offset="0.2422" stop-color="#FF5800"/>
<stop offset="0.3192" stop-color="#FFB414"/>
<stop offset="0.3963" stop-color="#FFB414"/>
<stop offset="0.4725" stop-color="#FFB414"/>
<stop offset="0.5476" stop-color="#FFB414"/>
<stop offset="0.62" stop-color="#FFB414"/>
<stop offset="0.6597" stop-color="#FFB414"/>
<stop offset="0.7244" stop-color="#FFB414"/>
<stop offset="0.8061" stop-color="#FF5800"/>
<stop offset="0.9" stop-color="#FF5800"/>
</linearGradient>
<linearGradient id="paint1_linear_1_3501" x1="10.3746" y1="26.3957" x2="33.5957" y2="26.3957" gradientUnits="userSpaceOnUse">
<stop offset="0.09" stop-color="#FF5800"/>
<stop offset="0.1898" stop-color="#FF5800"/>
<stop offset="0.3059" stop-color="#FFB414"/>
<stop offset="0.4034" stop-color="#FFB414"/>
<stop offset="0.47" stop-color="#FFB414"/>
<stop offset="0.5314" stop-color="#FFB414"/>
<stop offset="0.6235" stop-color="#FFB414"/>
<stop offset="0.7342" stop-color="#FF5800"/>
<stop offset="0.82" stop-color="#FF5800"/>
</linearGradient>
<linearGradient id="paint2_linear_1_3501" x1="5.94847" y1="27.3198" x2="24.573" y2="40.0004" gradientUnits="userSpaceOnUse">
<stop offset="0.5" stop-color="#FF5800"/>
<stop offset="0.64" stop-color="#CE056A" stop-opacity="0.99"/>
<stop offset="0.7559" stop-color="#CE056A"/>
<stop offset="0.8091" stop-color="#CE056A" stop-opacity="0.9955"/>
<stop offset="0.8494" stop-color="#CE056A" stop-opacity="0.9968"/>
<stop offset="0.8833" stop-color="#CE056A" stop-opacity="0.9978"/>
<stop offset="0.9131" stop-color="#FF5800" stop-opacity="0.9988"/>
<stop offset="0.9397" stop-color="#FF5800" stop-opacity="0.9997"/>
<stop offset="0.95" stop-color="#FF5800"/>
</linearGradient>
<linearGradient id="paint3_linear_1_3501" x1="15.0882" y1="34.9422" x2="32.3785" y2="22.9589" gradientUnits="userSpaceOnUse">
<stop stop-color="#FF5800"/>
<stop offset="0.0624571" stop-color="#FF5800"/>
<stop offset="0.1272" stop-color="#FF5800"/>
<stop offset="0.1929" stop-color="#DC4600"/>
<stop offset="0.259" stop-color="#C80000"/>
<stop offset="0.3" stop-color="#C80000"/>
<stop offset="0.48" stop-color="#C80000"/>
<stop offset="0.91" stop-color="#FF5800"/>
</linearGradient>
</defs>
</svg>
